src/client/assets/pup/icons/excavate.svg

<svg width="211" height="211" viewBox="0 0 211 211" fill="none" xmlns="http://www.w3.org/2000/svg">
<rect x="23.7452" y="105.77" width="116" height="116" transform="rotate(-45 23.7452 105.77)" fill="#B87333"/>
<path d="M90.4327 104.409L105.186 122.105C105.315 122.26 105.477 122.384 105.659 122.469C105.842 122.555 106.04 122.599 106.242 122.599C106.443 122.599 106.642 122.555 106.824 122.469C107.007 122.384 107.168 122.26 107.297 122.105L122.058 104.409H90.4327Z" fill="#299ACC"/>
<path d="M114.908 94.0964H97.5827C97.0847 94.0958 96.596 94.2305 96.1685 94.486C95.7411 94.7414 95.3911 95.1082 95.1558 95.547L90.4327 104.409H122.058L117.335 95.547C117.099 95.1082 116.749 94.7414 116.322 94.486C115.894 94.2305 115.406 94.0958 114.908 94.0964Z" fill="#38B1E7"/>
<path d="M104.925 121.569L100.058 104.409H112.433L107.565 121.596C107.479 121.881 107.303 122.13 107.063 122.306C106.823 122.482 106.532 122.576 106.235 122.573C105.937 122.57 105.649 122.47 105.413 122.289C105.177 122.108 105.005 121.855 104.925 121.569Z" fill="#61C0EA"/>
<path d="M112.433 104.409H100.058L99.3702 94.0964H113.12L112.433 104.409Z" fill="#89D0EF"/>
<path d="M84.3319 168.344L110.745 184.745L155.245 153.245L189.248 118.935L189.248 107.245L164.745 97.6449L135.245 102.245L119.745 109.265L107.745 112.245L92.7451 107.245L78.2451 102.245L59.7941 97.6449L40.7451 99.9025L19.6083 109.265L84.3319 168.344Z" fill="#4A3528"/>
<rect width="1.00577" height="6.71298" transform="matrix(0.865518 -0.500878 0.499122 0.866531 93.7452 81.4244)" fill="#C4FFFF"/>
<rect x="106.31" y="79.7452" width="1.00518" height="6.7169" fill="#C4FFFF"/>
<rect width="1.00577" height="6.71298" transform="matrix(0.865518 0.500878 -0.499122 0.866531 118.875 81.4244)" fill="#C4FFFF"/>
<g filter="url(#filter0_d_19_118)">
<g clip-path="url(#paint0_angular_19_118_clip_path)" data-figma-skip-parse="true"><g transform="matrix(0.0452548 0.0452548 -0.0452548 0.0452548 105.255 105.255)"><foreignObject x="-1250" y="-1250" width="2500" height="2500"><div xmlns="http://www.w3.org/1999/xhtml" style="background:conic-gradient(from 90deg,rgba(0, 0, 0, 1) 0deg,rgba(47, 10, 47, 1) 22.5deg,rgba(0, 0, 0, 1) 45deg,rgba(47, 10, 47, 1) 67.5deg,rgba(0, 0, 0, 1) 90deg,rgba(47, 10, 47, 1) 112.5deg,rgba(0, 0, 0, 1) 135deg,rgba(47, 10, 47, 1) 157.5deg,rgba(0, 0, 0, 1) 180deg,rgba(47, 10, 47, 1) 202.5deg,rgba(0, 0, 0, 1) 225deg,rgba(47, 10, 47, 1) 247.5deg,rgba(0, 0, 0, 1) 270deg,rgba(47, 10, 47, 1) 292.5deg,rgba(0, 0, 0, 1) 315deg,rgba(47, 10, 47, 1) 337.5deg,rgba(0, 0, 0, 1) 360deg);height:100%;width:100%;opacity:1"></div></foreignObject></g></g><path d="M37.3726 82.6274L43.0294 88.2843L88.2843 43.0294L82.6274 37.3726L76.9706 31.7157L31.7157 76.9706L37.3726 82.6274ZM127.882 37.3726L122.225 43.0294L167.48 88.2843L173.137 82.6274L178.794 76.9706L133.539 31.7157L127.882 37.3726ZM173.137 127.882L167.48 122.225L122.225 167.48L127.882 173.137L133.539 178.794L178.794 133.539L173.137 127.882ZM82.6274 173.137L88.2843 167.48L43.0294 122.225L37.3726 127.882L31.7157 133.539L76.9706 178.794L82.6274 173.137ZM127.882 173.137L122.225 167.48C112.853 176.853 97.6569 176.853 88.2843 167.48L82.6274 173.137L76.9706 178.794C92.5915 194.415 117.918 194.415 133.539 178.794L127.882 173.137ZM173.137 82.6274L167.48 88.2843C176.853 97.6569 176.853 112.853 167.48 122.225L173.137 127.882L178.794 133.539C194.415 117.918 194.415 92.5915 178.794 76.9706L173.137 82.6274ZM82.6274 37.3726L88.2843 43.0294C97.6569 33.6569 112.853 33.6569 122.225 43.0294L127.882 37.3726L133.539 31.7157C117.918 16.0948 92.5915 16.0948 76.9706 31.7157L82.6274 37.3726ZM37.3726 82.6274L31.7157 76.9706C16.0948 92.5915 16.0948 117.918 31.7157 133.539L37.3726 127.882L43.0294 122.225C33.6569 112.853 33.6569 97.6569 43.0294 88.2843L37.3726 82.6274Z" data-figma-gradient-fill="{&#34;type&#34;:&#34;GRADIENT_ANGULAR&#34;,&#34;stops&#34;:[{&#34;color&#34;:{&#34;r&#34;:0.0,&#34;g&#34;:0.0,&#34;b&#34;:0.0,&#34;a&#34;:1.0},&#34;position&#34;:0.0},{&#34;color&#34;:{&#34;r&#34;:0.18431372940540314,&#34;g&#34;:0.039215687662363052,&#34;b&#34;:0.18431372940540314,&#34;a&#34;:1.0},&#34;position&#34;:0.06250},{&#34;color&#34;:{&#34;r&#34;:0.0,&#34;g&#34;:0.0,&#34;b&#34;:0.0,&#34;a&#34;:1.0},&#34;position&#34;:0.1250},{&#34;color&#34;:{&#34;r&#34;:0.18431372940540314,&#34;g&#34;:0.039215687662363052,&#34;b&#34;:0.18431372940540314,&#34;a&#34;:1.0},&#34;position&#34;:0.18750},{&#34;color&#34;:{&#34;r&#34;:0.0,&#34;g&#34;:0.0,&#34;b&#34;:0.0,&#34;a&#34;:1.0},&#34;position&#34;:0.250},{&#34;color&#34;:{&#34;r&#34;:0.18431372940540314,&#34;g&#34;:0.039215687662363052,&#34;b&#34;:0.18431372940540314,&#34;a&#34;:1.0},&#34;position&#34;:0.31250},{&#34;color&#34;:{&#34;r&#34;:0.0,&#34;g&#34;:0.0,&#34;b&#34;:0.0,&#34;a&#34;:1.0},&#34;position&#34;:0.3750},{&#34;color&#34;:{&#34;r&#34;:0.18431372940540314,&#34;g&#34;:0.039215687662363052,&#34;b&#34;:0.18431372940540314,&#34;a&#34;:1.0},&#34;position&#34;:0.43750},{&#34;color&#34;:{&#34;r&#34;:0.0,&#34;g&#34;:0.0,&#34;b&#34;:0.0,&#34;a&#34;:1.0},&#34;position&#34;:0.50},{&#34;color&#34;:{&#34;r&#34;:0.18431372940540314,&#34;g&#34;:0.039215687662363052,&#34;b&#34;:0.18431372940540314,&#34;a&#34;:1.0},&#34;position&#34;:0.56250},{&#34;color&#34;:{&#34;r&#34;:0.0,&#34;g&#34;:0.0,&#34;b&#34;:0.0,&#34;a&#34;:1.0},&#34;position&#34;:0.6250},{&#34;color&#34;:{&#34;r&#34;:0.18431372940540314,&#34;g&#34;:0.039215687662363052,&#34;b&#34;:0.18431372940540314,&#34;a&#34;:1.0},&#34;position&#34;:0.68750},{&#34;color&#34;:{&#34;r&#34;:0.0,&#34;g&#34;:0.0,&#34;b&#34;:0.0,&#34;a&#34;:1.0},&#34;position&#34;:0.750},{&#34;color&#34;:{&#34;r&#34;:0.18431372940540314,&#34;g&#34;:0.039215687662363052,&#34;b&#34;:0.18431372940540314,&#34;a&#34;:1.0},&#34;position&#34;:0.81250},{&#34;color&#34;:{&#34;r&#34;:0.0,&#34;g&#34;:0.0,&#34;b&#34;:0.0,&#34;a&#34;:1.0},&#34;position&#34;:0.8750},{&#34;color&#34;:{&#34;r&#34;:0.18431372940540314,&#34;g&#34;:0.039215687662363052,&#34;b&#34;:0.18431372940540314,&#34;a&#34;:1.0},&#34;position&#34;:0.93750},{&#34;color&#34;:{&#34;r&#34;:0.0,&#34;g&#34;:0.0,&#34;b&#34;:0.0,&#34;a&#34;:1.0},&#34;position&#34;:1.0}],&#34;stopsVar&#34;:[{&#34;color&#34;:{&#34;r&#34;:0.0,&#34;g&#34;:0.0,&#34;b&#34;:0.0,&#34;a&#34;:1.0},&#34;position&#34;:0.0},{&#34;color&#34;:{&#34;r&#34;:0.18431372940540314,&#34;g&#34;:0.039215687662363052,&#34;b&#34;:0.18431372940540314,&#34;a&#34;:1.0},&#34;position&#34;:0.06250},{&#34;color&#34;:{&#34;r&#34;:0.0,&#34;g&#34;:0.0,&#34;b&#34;:0.0,&#34;a&#34;:1.0},&#34;position&#34;:0.1250},{&#34;color&#34;:{&#34;r&#34;:0.18431372940540314,&#34;g&#34;:0.039215687662363052,&#34;b&#34;:0.18431372940540314,&#34;a&#34;:1.0},&#34;position&#34;:0.18750},{&#34;color&#34;:{&#34;r&#34;:0.0,&#34;g&#34;:0.0,&#34;b&#34;:0.0,&#34;a&#34;:1.0},&#34;position&#34;:0.250},{&#34;color&#34;:{&#34;r&#34;:0.18431372940540314,&#34;g&#34;:0.039215687662363052,&#34;b&#34;:0.18431372940540314,&#34;a&#34;:1.0},&#34;position&#34;:0.31250},{&#34;color&#34;:{&#34;r&#34;:0.0,&#34;g&#34;:0.0,&#34;b&#34;:0.0,&#34;a&#34;:1.0},&#34;position&#34;:0.3750},{&#34;color&#34;:{&#34;r&#34;:0.18431372940540314,&#34;g&#34;:0.039215687662363052,&#34;b&#34;:0.18431372940540314,&#34;a&#34;:1.0},&#34;position&#34;:0.43750},{&#34;color&#34;:{&#34;r&#34;:0.0,&#34;g&#34;:0.0,&#34;b&#34;:0.0,&#34;a&#34;:1.0},&#34;position&#34;:0.50},{&#34;color&#34;:{&#34;r&#34;:0.18431372940540314,&#34;g&#34;:0.039215687662363052,&#34;b&#34;:0.18431372940540314,&#34;a&#34;:1.0},&#34;position&#34;:0.56250},{&#34;color&#34;:{&#34;r&#34;:0.0,&#34;g&#34;:0.0,&#34;b&#34;:0.0,&#34;a&#34;:1.0},&#34;position&#34;:0.6250},{&#34;color&#34;:{&#34;r&#34;:0.18431372940540314,&#34;g&#34;:0.039215687662363052,&#34;b&#34;:0.18431372940540314,&#34;a&#34;:1.0},&#34;position&#34;:0.68750},{&#34;color&#34;:{&#34;r&#34;:0.0,&#34;g&#34;:0.0,&#34;b&#34;:0.0,&#34;a&#34;:1.0},&#34;position&#34;:0.750},{&#34;color&#34;:{&#34;r&#34;:0.18431372940540314,&#34;g&#34;:0.039215687662363052,&#34;b&#34;:0.18431372940540314,&#34;a&#34;:1.0},&#34;position&#34;:0.81250},{&#34;color&#34;:{&#34;r&#34;:0.0,&#34;g&#34;:0.0,&#34;b&#34;:0.0,&#34;a&#34;:1.0},&#34;position&#34;:0.8750},{&#34;color&#34;:{&#34;r&#34;:0.18431372940540314,&#34;g&#34;:0.039215687662363052,&#34;b&#34;:0.18431372940540314,&#34;a&#34;:1.0},&#34;position&#34;:0.93750},{&#34;color&#34;:{&#34;r&#34;:0.0,&#34;g&#34;:0.0,&#34;b&#34;:0.0,&#34;a&#34;:1.0},&#34;position&#34;:1.0}],&#34;transform&#34;:{&#34;m00&#34;:90.509666442871094,&#34;m01&#34;:-90.509666442871094,&#34;m02&#34;:105.25484466552734,&#34;m10&#34;:90.509666442871094,&#34;m11&#34;:90.509666442871094,&#34;m12&#34;:14.745170593261719},&#34;opacity&#34;:1.0,&#34;blendMode&#34;:&#34;NORMAL&#34;,&#34;visible&#34;:true}"/>
</g>
<defs>
<filter id="filter0_d_19_118" x="0" y="1.52588e-05" width="210.51" height="210.51" filterUnits="userSpaceOnUse" color-interpolation-filters="sRGB">
<feFlood flood-opacity="0" result="BackgroundImageFix"/>
<feColorMatrix in="SourceAlpha" type="matrix" values="0 0 0 0 0 0 0 0 0 0 0 0 0 0 0 0 0 0 127 0" result="hardAlpha"/>
<feMorphology radius="4" operator="dilate" in="SourceAlpha" result="effect1_dropShadow_19_118"/>
<feOffset/>
<feGaussianBlur stdDeviation="8"/>
<feComposite in2="hardAlpha" operator="out"/>
<feColorMatrix type="matrix" values="0 0 0 0 0.0431373 0 0 0 0 0.00784314 0 0 0 0 0.0431373 0 0 0 0.5 0"/>
<feBlend mode="normal" in2="BackgroundImageFix" result="effect1_dropShadow_19_118"/>
<feBlend mode="normal" in="SourceGraphic" in2="effect1_dropShadow_19_118" result="shape"/>
</filter>
<clipPath id="paint0_angular_19_118_clip_path"><path d="M37.3726 82.6274L43.0294 88.2843L88.2843 43.0294L82.6274 37.3726L76.9706 31.7157L31.7157 76.9706L37.3726 82.6274ZM127.882 37.3726L122.225 43.0294L167.48 88.2843L173.137 82.6274L178.794 76.9706L133.539 31.7157L127.882 37.3726ZM173.137 127.882L167.48 122.225L122.225 167.48L127.882 173.137L133.539 178.794L178.794 133.539L173.137 127.882ZM82.6274 173.137L88.2843 167.48L43.0294 122.225L37.3726 127.882L31.7157 133.539L76.9706 178.794L82.6274 173.137ZM127.882 173.137L122.225 167.48C112.853 176.853 97.6569 176.853 88.2843 167.48L82.6274 173.137L76.9706 178.794C92.5915 194.415 117.918 194.415 133.539 178.794L127.882 173.137ZM173.137 82.6274L167.48 88.2843C176.853 97.6569 176.853 112.853 167.48 122.225L173.137 127.882L178.794 133.539C194.415 117.918 194.415 92.5915 178.794 76.9706L173.137 82.6274ZM82.6274 37.3726L88.2843 43.0294C97.6569 33.6569 112.853 33.6569 122.225 43.0294L127.882 37.3726L133.539 31.7157C117.918 16.0948 92.5915 16.0948 76.9706 31.7157L82.6274 37.3726ZM37.3726 82.6274L31.7157 76.9706C16.0948 92.5915 16.0948 117.918 31.7157 133.539L37.3726 127.882L43.0294 122.225C33.6569 112.853 33.6569 97.6569 43.0294 88.2843L37.3726 82.6274Z"/></clipPath></defs>
</svg>

<svg width="211" height="211" fill="none" xmlns="http://www.w3.org/2000/svg"><path fill="#B87333" d="m23.745 105.77 82.024-82.024 82.025 82.024-82.025 82.025z"/><path d="m90.433 104.409 14.753 17.696a1.369 1.369 0 0 0 1.056.494c.201 0 .4-.044.582-.13a1.36 1.36 0 0 0 .473-.364l14.761-17.696H90.433z" fill="#299ACC"/><path d="M114.908 94.096H97.583a2.75 2.75 0 0 0-2.427 1.451l-4.723 8.862h31.625l-4.723-8.862a2.759 2.759 0 0 0-2.427-1.45z" fill="#38B1E7"/><path d="m104.925 121.569-4.867-17.16h12.375l-4.868 17.187a1.371 1.371 0 0 1-1.33.977 1.373 1.373 0 0 1-1.31-1.004z" fill="#61C0EA"/><path d="M112.433 104.409h-12.375l-.688-10.313h13.75l-.687 10.313z" fill="#89D0EF"/><path d="m84.332 168.344 26.413 16.401 44.5-31.5 34.003-34.31v-11.69l-24.503-9.6-29.5 4.6-15.5 7.02-12 2.98-15-5-14.5-5-18.45-4.6-19.05 2.258-21.137 9.362 64.724 59.079z" fill="#4A3528"/><path fill="#C4FFFF" d="m93.745 81.424.87-.503 3.352 5.817-.871.503zM106.31 79.745h1.005v6.717h-1.005zM118.875 81.424l.87.504-3.35 5.817-.87-.504z"/><g filter="url(#a)"><g clip-path="url(#b)" data-figma-skip-parse="true"><foreignObject x="-1250" y="-1250" width="2500" height="2500" transform="rotate(45 -74.426 179.682) scale(.064)"><div xmlns="http://www.w3.org/1999/xhtml" style="background:conic-gradient(from 90deg,#000 0deg,#2f0a2f 22.5deg,#000 45deg,#2f0a2f 67.5deg,#000 90deg,#2f0a2f 112.5deg,#000 135deg,#2f0a2f 157.5deg,#000 180deg,#2f0a2f 202.5deg,#000 225deg,#2f0a2f 247.5deg,#000 270deg,#2f0a2f 292.5deg,#000 315deg,#2f0a2f 337.5deg,#000 360deg);height:100%;width:100%;opacity:1"/></foreignObject></g><path d="m37.373 82.627 5.656 5.657L88.284 43.03l-5.657-5.656-5.656-5.657L31.716 76.97l5.657 5.656zm90.509-45.254-5.657 5.656 45.255 45.255 5.657-5.657 5.657-5.656-45.255-45.255-5.657 5.657zm45.255 90.509-5.657-5.657-45.255 45.255 5.657 5.657 5.657 5.657 45.255-45.255-5.657-5.657zm-90.51 45.255 5.657-5.657-45.255-45.255-5.656 5.657-5.657 5.657 45.255 45.255 5.656-5.657zm45.255 0-5.657-5.657c-9.372 9.373-24.568 9.373-33.94 0l-5.658 5.657-5.656 5.657c15.62 15.621 40.947 15.621 56.568 0l-5.657-5.657zm45.255-90.51-5.657 5.657c9.373 9.373 9.373 24.569 0 33.941l5.657 5.657 5.657 5.657c15.621-15.621 15.621-40.947 0-56.568l-5.657 5.656zm-90.51-45.254 5.657 5.656c9.373-9.372 24.569-9.372 33.941 0l5.657-5.656 5.657-5.657c-15.621-15.621-40.947-15.621-56.568 0l5.656 5.657zM37.373 82.627l-5.657-5.656c-15.621 15.62-15.621 40.947 0 56.568l5.657-5.657 5.656-5.657c-9.372-9.372-9.372-24.568 0-33.94l-5.656-5.658z" data-figma-gradient-fill="{&quot;type&quot;:&quot;GRADIENT_ANGULAR&quot;,&quot;stops&quot;:[{&quot;color&quot;:{&quot;r&quot;:0.0,&quot;g&quot;:0.0,&quot;b&quot;:0.0,&quot;a&quot;:1.0},&quot;position&quot;:0.0},{&quot;color&quot;:{&quot;r&quot;:0.18431372940540314,&quot;g&quot;:0.039215687662363052,&quot;b&quot;:0.18431372940540314,&quot;a&quot;:1.0},&quot;position&quot;:0.06250},{&quot;color&quot;:{&quot;r&quot;:0.0,&quot;g&quot;:0.0,&quot;b&quot;:0.0,&quot;a&quot;:1.0},&quot;position&quot;:0.1250},{&quot;color&quot;:{&quot;r&quot;:0.18431372940540314,&quot;g&quot;:0.039215687662363052,&quot;b&quot;:0.18431372940540314,&quot;a&quot;:1.0},&quot;position&quot;:0.18750},{&quot;color&quot;:{&quot;r&quot;:0.0,&quot;g&quot;:0.0,&quot;b&quot;:0.0,&quot;a&quot;:1.0},&quot;position&quot;:0.250},{&quot;color&quot;:{&quot;r&quot;:0.18431372940540314,&quot;g&quot;:0.039215687662363052,&quot;b&quot;:0.18431372940540314,&quot;a&quot;:1.0},&quot;position&quot;:0.31250},{&quot;color&quot;:{&quot;r&quot;:0.0,&quot;g&quot;:0.0,&quot;b&quot;:0.0,&quot;a&quot;:1.0},&quot;position&quot;:0.3750},{&quot;color&quot;:{&quot;r&quot;:0.18431372940540314,&quot;g&quot;:0.039215687662363052,&quot;b&quot;:0.18431372940540314,&quot;a&quot;:1.0},&quot;position&quot;:0.43750},{&quot;color&quot;:{&quot;r&quot;:0.0,&quot;g&quot;:0.0,&quot;b&quot;:0.0,&quot;a&quot;:1.0},&quot;position&quot;:0.50},{&quot;color&quot;:{&quot;r&quot;:0.18431372940540314,&quot;g&quot;:0.039215687662363052,&quot;b&quot;:0.18431372940540314,&quot;a&quot;:1.0},&quot;position&quot;:0.56250},{&quot;color&quot;:{&quot;r&quot;:0.0,&quot;g&quot;:0.0,&quot;b&quot;:0.0,&quot;a&quot;:1.0},&quot;position&quot;:0.6250},{&quot;color&quot;:{&quot;r&quot;:0.18431372940540314,&quot;g&quot;:0.039215687662363052,&quot;b&quot;:0.18431372940540314,&quot;a&quot;:1.0},&quot;position&quot;:0.68750},{&quot;color&quot;:{&quot;r&quot;:0.0,&quot;g&quot;:0.0,&quot;b&quot;:0.0,&quot;a&quot;:1.0},&quot;position&quot;:0.750},{&quot;color&quot;:{&quot;r&quot;:0.18431372940540314,&quot;g&quot;:0.039215687662363052,&quot;b&quot;:0.18431372940540314,&quot;a&quot;:1.0},&quot;position&quot;:0.81250},{&quot;color&quot;:{&quot;r&quot;:0.0,&quot;g&quot;:0.0,&quot;b&quot;:0.0,&quot;a&quot;:1.0},&quot;position&quot;:0.8750},{&quot;color&quot;:{&quot;r&quot;:0.18431372940540314,&quot;g&quot;:0.039215687662363052,&quot;b&quot;:0.18431372940540314,&quot;a&quot;:1.0},&quot;position&quot;:0.93750},{&quot;color&quot;:{&quot;r&quot;:0.0,&quot;g&quot;:0.0,&quot;b&quot;:0.0,&quot;a&quot;:1.0},&quot;position&quot;:1.0}],&quot;stopsVar&quot;:[{&quot;color&quot;:{&quot;r&quot;:0.0,&quot;g&quot;:0.0,&quot;b&quot;:0.0,&quot;a&quot;:1.0},&quot;position&quot;:0.0},{&quot;color&quot;:{&quot;r&quot;:0.18431372940540314,&quot;g&quot;:0.039215687662363052,&quot;b&quot;:0.18431372940540314,&quot;a&quot;:1.0},&quot;position&quot;:0.06250},{&quot;color&quot;:{&quot;r&quot;:0.0,&quot;g&quot;:0.0,&quot;b&quot;:0.0,&quot;a&quot;:1.0},&quot;position&quot;:0.1250},{&quot;color&quot;:{&quot;r&quot;:0.18431372940540314,&quot;g&quot;:0.039215687662363052,&quot;b&quot;:0.18431372940540314,&quot;a&quot;:1.0},&quot;position&quot;:0.18750},{&quot;color&quot;:{&quot;r&quot;:0.0,&quot;g&quot;:0.0,&quot;b&quot;:0.0,&quot;a&quot;:1.0},&quot;position&quot;:0.250},{&quot;color&quot;:{&quot;r&quot;:0.18431372940540314,&quot;g&quot;:0.039215687662363052,&quot;b&quot;:0.18431372940540314,&quot;a&quot;:1.0},&quot;position&quot;:0.31250},{&quot;color&quot;:{&quot;r&quot;:0.0,&quot;g&quot;:0.0,&quot;b&quot;:0.0,&quot;a&quot;:1.0},&quot;position&quot;:0.3750},{&quot;color&quot;:{&quot;r&quot;:0.18431372940540314,&quot;g&quot;:0.039215687662363052,&quot;b&quot;:0.18431372940540314,&quot;a&quot;:1.0},&quot;position&quot;:0.43750},{&quot;color&quot;:{&quot;r&quot;:0.0,&quot;g&quot;:0.0,&quot;b&quot;:0.0,&quot;a&quot;:1.0},&quot;position&quot;:0.50},{&quot;color&quot;:{&quot;r&quot;:0.18431372940540314,&quot;g&quot;:0.039215687662363052,&quot;b&quot;:0.18431372940540314,&quot;a&quot;:1.0},&quot;position&quot;:0.56250},{&quot;color&quot;:{&quot;r&quot;:0.0,&quot;g&quot;:0.0,&quot;b&quot;:0.0,&quot;a&quot;:1.0},&quot;position&quot;:0.6250},{&quot;color&quot;:{&quot;r&quot;:0.18431372940540314,&quot;g&quot;:0.039215687662363052,&quot;b&quot;:0.18431372940540314,&quot;a&quot;:1.0},&quot;position&quot;:0.68750},{&quot;color&quot;:{&quot;r&quot;:0.0,&quot;g&quot;:0.0,&quot;b&quot;:0.0,&quot;a&quot;:1.0},&quot;position&quot;:0.750},{&quot;color&quot;:{&quot;r&quot;:0.18431372940540314,&quot;g&quot;:0.039215687662363052,&quot;b&quot;:0.18431372940540314,&quot;a&quot;:1.0},&quot;position&quot;:0.81250},{&quot;color&quot;:{&quot;r&quot;:0.0,&quot;g&quot;:0.0,&quot;b&quot;:0.0,&quot;a&quot;:1.0},&quot;position&quot;:0.8750},{&quot;color&quot;:{&quot;r&quot;:0.18431372940540314,&quot;g&quot;:0.039215687662363052,&quot;b&quot;:0.18431372940540314,&quot;a&quot;:1.0},&quot;position&quot;:0.93750},{&quot;color&quot;:{&quot;r&quot;:0.0,&quot;g&quot;:0.0,&quot;b&quot;:0.0,&quot;a&quot;:1.0},&quot;position&quot;:1.0}],&quot;transform&quot;:{&quot;m00&quot;:90.509666442871094,&quot;m01&quot;:-90.509666442871094,&quot;m02&quot;:105.25484466552734,&quot;m10&quot;:90.509666442871094,&quot;m11&quot;:90.509666442871094,&quot;m12&quot;:14.745170593261719},&quot;opacity&quot;:1.0,&quot;blendMode&quot;:&quot;NORMAL&quot;,&quot;visible&quot;:true}"/></g><defs><clipPath id="b"><path d="m37.373 82.627 5.656 5.657L88.284 43.03l-5.657-5.656-5.656-5.657L31.716 76.97l5.657 5.656zm90.509-45.254-5.657 5.656 45.255 45.255 5.657-5.657 5.657-5.656-45.255-45.255-5.657 5.657zm45.255 90.509-5.657-5.657-45.255 45.255 5.657 5.657 5.657 5.657 45.255-45.255-5.657-5.657zm-90.51 45.255 5.657-5.657-45.255-45.255-5.656 5.657-5.657 5.657 45.255 45.255 5.656-5.657zm45.255 0-5.657-5.657c-9.372 9.373-24.568 9.373-33.94 0l-5.658 5.657-5.656 5.657c15.62 15.621 40.947 15.621 56.568 0l-5.657-5.657zm45.255-90.51-5.657 5.657c9.373 9.373 9.373 24.569 0 33.941l5.657 5.657 5.657 5.657c15.621-15.621 15.621-40.947 0-56.568l-5.657 5.656zm-90.51-45.254 5.657 5.656c9.373-9.372 24.569-9.372 33.941 0l5.657-5.656 5.657-5.657c-15.621-15.621-40.947-15.621-56.568 0l5.656 5.657zM37.373 82.627l-5.657-5.656c-15.621 15.62-15.621 40.947 0 56.568l5.657-5.657 5.656-5.657c-9.372-9.372-9.372-24.568 0-33.94l-5.656-5.658z"/></clipPath><filter id="a" x="0" y="0" width="210.51" height="210.51" filterUnits="userSpaceOnUse" color-interpolation-filters="sRGB"><feFlood flood-opacity="0" result="BackgroundImageFix"/><feColorMatrix in="SourceAlpha" values="0 0 0 0 0 0 0 0 0 0 0 0 0 0 0 0 0 0 127 0" result="hardAlpha"/><feMorphology radius="4" operator="dilate" in="SourceAlpha" result="effect1_dropShadow_19_118"/><feOffset/><feGaussianBlur stdDeviation="8"/><feComposite in2="hardAlpha" operator="out"/><feColorMatrix values="0 0 0 0 0.0431373 0 0 0 0 0.00784314 0 0 0 0 0.0431373 0 0 0 0.5 0"/><feBlend in2="BackgroundImageFix" result="effect1_dropShadow_19_118"/><feBlend in="SourceGraphic" in2="effect1_dropShadow_19_118" result="shape"/></filter></defs></svg>
